packages/katcn/src/icons/svg/bank.svg

<svg xmlns="http://www.w3.org/2000/svg" fill="none" viewBox="0 0 24 24"><path fill="#000" d="M21 20h-1.7v-5.8c0-.6-.4-1-1-1s-1 .4-1 1V20h-2.2v-5.8c0-.6-.4-1-1-1s-1 .4-1 1V20h-2.2v-5.8c0-.6-.4-1-1-1s-1 .4-1 1V20H6.7v-5.8c0-.6-.4-1-1-1s-1 .4-1 1V20H3c-.6 0-1 .4-1 1s.4 1 1 1h18c.6 0 1-.4 1-1s-.4-1-1-1m0-14-7.5-3.7c-1-.5-2.1-.5-3 0L3 6c-.6.3-1 1-1 1.6v2.3c0 1 .8 1.8 1.8 1.8h16.4c1 0 1.8-.8 1.8-1.8V7.6c0-.7-.4-1.3-1-1.6m-1 3.7H4v-2l7.4-3.6c.4-.2.9-.2 1.3 0L20 7.8z"/></svg>

<svg width="24" height="24" viewBox="0 0 24 24" fill="none" xmlns="http://www.w3.org/2000/svg">
<path d="M21 20H19.3V14.2C19.3 13.6 18.9 13.2 18.3 13.2C17.7 13.2 17.3 13.6 17.3 14.2V20H15.1V14.2C15.1 13.6 14.7 13.2 14.1 13.2C13.5 13.2 13.1 13.6 13.1 14.2V20H10.9V14.2C10.9 13.6 10.5 13.2 9.9 13.2C9.3 13.2 8.9 13.6 8.9 14.2V20H6.7V14.2C6.7 13.6 6.3 13.2 5.7 13.2C5.1 13.2 4.7 13.6 4.7 14.2V20H3C2.4 20 2 20.4 2 21C2 21.6 2.4 22 3 22H21C21.6 22 22 21.6 22 21C22 20.4 21.6 20 21 20Z" fill="black"/>
<path d="M21 6L13.5 2.3C12.5 1.8 11.4 1.8 10.5 2.3L3 6C2.4 6.3 2 7 2 7.6V9.9C2 10.9 2.8 11.7 3.8 11.7H20.2C21.2 11.7 22 10.9 22 9.9V7.6C22 6.9 21.6 6.3 21 6ZM20 9.7H4V7.7L11.4 4.1C11.8 3.9 12.3 3.9 12.7 4.1L20 7.8V9.7Z" fill="black"/>
</svg>
